i/admin/skin/entrine/list/visible_bottom-1.svg

<svg height="22" viewBox="0 0 24 22" width="24" xmlns="http://www.w3.org/2000/svg"><g style="fill: #825ADF;"><path d="m12.015 2c4.751 0 8.063 3.012 9.504 4.636-1.401 1.837-4.713 5.364-9.504 5.364-4.42 0-7.93-3.536-9.478-5.407 1.493-1.647 4.817-4.593 9.478-4.593zm0-2c-7.569 0-12.015 6.551-12.015 6.551s4.835 7.449 12.015 7.449c7.733 0 11.985-7.449 11.985-7.449s-4.291-6.551-11.985-6.551zm-.015 3c-2.209 0-4 1.792-4 4 0 2.209 1.791 4 4 4s4-1.791 4-4c0-2.208-1.791-4-4-4z"/><path d="m0 20h24v2h-24z"/></g></svg>

<svg width="24px" height="22px" viewBox="0 0 24 22" version="1.1" xmlns="http://www.w3.org/2000/svg" xmlns:xlink="http://www.w3.org/1999/xlink">
    <g id="Page-1" stroke="none" stroke-width="1" fill="none" fill-rule="evenodd">
        <g id="visible-1" fill="#000000" fill-rule="nonzero">
            <path d="M12.015,2 C16.766,2 20.078,5.012 21.519,6.636 C20.118,8.473 16.806,12 12.015,12 C7.595,12 4.085,8.464 2.537,6.593 C4.03,4.946 7.354,2 12.015,2 Z M12.015,0 C4.446,0 0,6.551 0,6.551 C0,6.551 4.835,14 12.015,14 C19.748,14 24,6.551 24,6.551 C24,6.551 19.709,0 12.015,0 Z M12,3 C9.791,3 8,4.792 8,7 C8,9.209 9.791,11 12,11 C14.209,11 16,9.209 16,7 C16,4.792 14.209,3 12,3 Z" id="Shape"></path>
            <rect id="Rectangle" x="0" y="20" width="24" height="2"></rect>
        </g>
    </g>
</svg>
